src/assets/filled/Command.svg

<?xml version="1.0" encoding="UTF-8"?>
<svg width="24" height="24" viewBox="0 0 24 24" xmlns="http://www.w3.org/2000/svg">
 <path d="m16 8h-8v8h8v-8z"/>
 <path d="m2 19c0 1.65 1.35 3 3 3s3-1.35 3-3v-3h-3c-1.65 0-3 1.35-3 3z"/>
 <path d="m5 2c-1.65 0-3 1.35-3 3s1.35 3 3 3h3v-3c0-1.65-1.35-3-3-3z"/>
 <path d="m22 5c0-1.65-1.35-3-3-3s-3 1.35-3 3v3h3c1.65 0 3-1.35 3-3z"/>
 <path d="m19 16h-3v3c0 1.65 1.35 3 3 3s3-1.35 3-3-1.35-3-3-3z"/>
</svg>

<svg width="24" height="24" viewBox="0 0 24 24"  xmlns="http://www.w3.org/2000/svg">
<path d="M16 8H8V16H16V8Z" />
<path d="M2 19C2 20.65 3.35 22 5 22C6.65 22 8 20.65 8 19V16H5C3.35 16 2 17.35 2 19Z" />
<path d="M5 2C3.35 2 2 3.35 2 5C2 6.65 3.35 8 5 8H8V5C8 3.35 6.65 2 5 2Z" />
<path d="M22 5C22 3.35 20.65 2 19 2C17.35 2 16 3.35 16 5V8H19C20.65 8 22 6.65 22 5Z" />
<path d="M19 16H16V19C16 20.65 17.35 22 19 22C20.65 22 22 20.65 22 19C22 17.35 20.65 16 19 16Z" />
</svg>
